X: 40938
T: Trip To Brittany, The
R: jig
M: 6/8
K: Gmajor
|:BGD dBG|ecg fdc|BGD dBG|F3 cBA|
BGD dBG|ecg fzf|ged (3Bcd e|fdc BcA:|
|:E3 cBA|e2d cBA|B2 G E3|cBA BAG|
AEG Ace|azg ede|g3 GAB|deB ABG:|

